app/images/icons/search.svg

<svg xmlns="http://www.w3.org/2000/svg" preserveAspectRatio="xMidYMid" width="17.03" height="17"><path d="M16.439 17.014a.592.592 0 01-.419-.174l-5.299-5.298a6.502 6.502 0 01-4.178 1.514A6.539 6.539 0 01.012 6.525 6.539 6.539 0 016.543-.007a6.538 6.538 0 016.531 6.532 6.505 6.505 0 01-1.513 4.178l5.298 5.298a.592.592 0 01-.42 1.013zM6.543 1.181A5.35 5.35 0 001.2 6.525a5.35 5.35 0 005.343 5.344 5.351 5.351 0 005.345-5.344 5.35 5.35 0 00-5.345-5.344z" fill="#094074" fill-rule="evenodd"/></svg>

<svg xmlns="http://www.w3.org/2000/svg" xmlns:xlink="http://www.w3.org/1999/xlink" preserveAspectRatio="xMidYMid" width="17.03" height="17" viewBox="0 0 17.03 17">
  <defs>
    <style>
      .cls-1 {
        fill: #094074;
        fill-rule: evenodd;
      }
    </style>
  </defs>
  <path d="M16.439,17.014 C16.288,17.014 16.136,16.956 16.020,16.840 L10.721,11.542 C9.588,12.487 8.131,13.056 6.543,13.056 C2.942,13.056 0.012,10.126 0.012,6.525 C0.012,2.923 2.942,-0.007 6.543,-0.007 C10.145,-0.007 13.074,2.923 13.074,6.525 C13.074,8.112 12.506,9.569 11.561,10.703 L16.859,16.001 C16.975,16.117 17.033,16.269 17.033,16.421 C17.033,16.572 16.975,16.724 16.859,16.840 C16.743,16.956 16.591,17.014 16.439,17.014 ZM6.543,1.181 C3.597,1.181 1.200,3.578 1.200,6.525 C1.200,9.471 3.597,11.869 6.543,11.869 C9.490,11.869 11.888,9.471 11.888,6.525 C11.888,3.578 9.490,1.181 6.543,1.181 Z" class="cls-1"/>
</svg>
